dist/assets/img/svgIcons/proff_icon.svg

<svg width="85" height="98" viewBox="0 0 85 98" fill="none" xmlns="http://www.w3.org/2000/svg">
<path d="M37.5057 2.87905C40.5968 1.09712 44.4032 1.09713 47.4943 2.87906L79.9943 21.6143C83.0915 23.3998 85 26.7029 85 30.2779V67.7221C85 71.2971 83.0915 74.6002 79.9943 76.3857L47.4943 95.1209C44.4032 96.9029 40.5968 96.9029 37.5057 95.1209L5.00571 76.3856C1.90848 74.6002 0 71.2971 0 67.7221V30.2779C0 26.7029 1.90848 23.3998 5.00572 21.6144L37.5057 2.87905Z" fill="#FF8502"/>
<g filter="url(#filter0_i_482_1001)">
<path fill-rule="evenodd" clip-rule="evenodd" d="M37.2686 20.0545C39.056 19.2521 41.0001 18.8993 42.943 19.0248C44.8944 19.1376 46.8007 19.6782 48.5373 20.6111C52.1835 22.5825 54.9784 26.2563 55.1656 31.1499C55.1763 31.4279 55.0803 31.699 54.8989 31.9034C54.7175 32.1078 54.4655 32.2289 54.1983 32.24C53.9312 32.251 53.6707 32.1512 53.4743 31.9625C53.2778 31.7737 53.1615 31.5114 53.1508 31.2334C53.0216 29.4691 52.5117 27.7579 51.6588 26.2272C50.806 24.6965 49.6324 23.3856 48.2252 22.3923C48.0915 22.3228 47.9622 22.2532 47.8241 22.1882C47.7098 22.2307 47.5887 22.2496 47.4675 22.2439C46.5492 22.2439 46.3085 23.9231 46.255 26.2145C46.2283 27.2443 46.255 28.3761 46.255 29.5311C46.255 30.4588 46.2907 31.3865 46.2907 32.0127C46.2907 32.2895 46.185 32.5549 45.9969 32.7507C45.8088 32.9464 45.5537 33.0564 45.2877 33.0564C45.0217 33.0564 44.7666 32.9464 44.5785 32.7507C44.3904 32.5549 44.2848 32.2895 44.2848 32.0127C44.2848 30.9968 44.2848 30.2732 44.258 29.5635C44.258 28.3807 44.2134 27.2443 44.258 26.1681C44.3115 24.0993 44.5478 22.346 45.2743 21.293C44.4714 21.1609 43.6617 21.0773 42.8494 21.0425C41.8885 20.9975 40.9256 21.0316 39.9699 21.1446C40.6385 22.2254 40.8614 23.9509 40.9149 25.9779C40.9416 27.0773 40.9149 28.274 40.9149 29.4986C40.9149 30.2315 40.9149 30.9783 40.9149 32.0127C40.8981 32.2708 40.7877 32.5127 40.6061 32.6894C40.4244 32.8661 40.1851 32.9644 39.9364 32.9644C39.6878 32.9644 39.4484 32.8661 39.2668 32.6894C39.0851 32.5127 38.9748 32.2708 38.958 32.0127C38.958 31.3633 38.958 30.4124 38.9937 29.4708C39.016 28.2647 39.0338 27.0912 38.9937 26.029C38.9402 23.6772 38.695 21.9378 37.7634 21.9656C37.651 21.9688 37.5391 21.95 37.4335 21.9099C35.129 23.3015 33.083 26.2934 32.0845 31.3076C32.0448 31.5783 31.9041 31.8217 31.6929 31.985C31.4818 32.1483 31.2172 32.2182 30.9567 32.1797C30.8267 32.1687 30.7001 32.1307 30.5844 32.0679C30.4687 32.0052 30.3663 31.9189 30.2832 31.8143C30.2001 31.7097 30.138 31.5887 30.1005 31.4587C30.0631 31.3286 30.0511 31.1921 30.0652 31.0571C30.8185 25.2126 33.7026 21.678 37.2641 20.0545H37.2686ZM48.5194 52.246C48.2832 52.3945 47.931 52.6125 47.6279 52.7887C47.4483 52.8999 47.2605 52.9961 47.0663 53.0763C46.3188 53.452 45.5341 53.7413 44.7261 53.9391C43.329 54.2968 41.8704 54.3063 40.4691 53.9669H40.4424C39.7892 53.8082 39.1497 53.5941 38.5301 53.3268C38.0733 53.1463 37.6268 52.9388 37.1928 52.7052C36.8184 52.5011 36.4395 52.2785 36.0651 52.028V54.3473L42.3056 56.3558L48.5194 54.5004V52.246ZM33.074 36.9156L32.6996 39.2349C32.6844 39.3195 32.6383 39.3948 32.571 39.4449C32.5037 39.495 32.4205 39.5162 32.3386 39.5039C32.2983 39.4933 32.2594 39.4778 32.2227 39.4576L31.1127 38.7154H31.0592C30.8676 38.6876 30.7294 38.6736 30.6135 38.887C30.5301 39.0496 30.4786 39.2277 30.4619 39.4112C30.431 39.7196 30.431 40.0305 30.4619 40.3389C30.5032 40.7064 30.5747 41.0696 30.6759 41.4243C30.7671 41.7614 30.888 42.089 31.037 42.403C31.174 42.7166 31.3695 42.9988 31.612 43.2333C31.6621 43.287 31.7239 43.3273 31.7922 43.3507C31.8605 43.3741 31.9333 43.38 32.0042 43.3678H32.0265C32.1913 43.3216 32.3669 43.3432 32.5169 43.4281C32.6744 43.5146 32.7941 43.6607 32.8512 43.8363V43.8595L33.0473 44.4579L33.1944 44.9218C33.7516 46.6519 34.184 47.9878 35.1557 49.166C35.5898 49.682 36.0755 50.1485 36.6044 50.5576C37.171 51.0002 37.7771 51.3854 38.4142 51.708H38.4365C38.5613 51.7729 38.6861 51.8332 38.8109 51.8889L39.2121 52.0605C39.735 52.2617 40.2733 52.4169 40.8213 52.5243C41.3458 52.6297 41.8784 52.6856 42.4126 52.6913C43.039 52.7021 43.6649 52.6462 44.2803 52.5243C44.9051 52.3905 45.5157 52.1932 46.1034 51.9352C46.2416 51.8749 46.3486 51.8193 46.4556 51.7682C47.1095 51.4406 47.7268 51.0393 48.2966 50.5715C48.8489 50.1221 49.3485 49.6068 49.7854 49.0361C50.1563 48.5426 50.4565 47.9957 50.6769 47.4127C50.923 46.7674 51.1373 46.1094 51.3188 45.4413L51.3856 45.2093C51.4792 44.8846 51.5773 44.5414 51.6843 44.1842C51.7273 44.0073 51.8322 43.8535 51.9785 43.7528C52.1247 43.6584 52.2989 43.6221 52.4688 43.6508C52.6204 43.6786 52.7987 43.558 52.9814 43.34C53.2872 42.943 53.5282 42.4964 53.6946 42.018C53.8106 41.7162 53.9059 41.4061 53.9799 41.0903C54.0523 40.7856 54.1015 40.4754 54.127 40.1626V40.1348C54.1494 39.8895 54.1494 39.6425 54.127 39.3973C54.1177 39.2363 54.0783 39.0787 54.0111 38.9334C53.9264 38.7803 53.8596 38.6968 53.7883 38.669C53.6949 38.6426 53.5964 38.6426 53.503 38.669L53.0929 38.9473C52.7437 39.2142 52.3489 39.4094 51.9295 39.5225C51.8902 39.5345 51.8491 39.5382 51.8085 39.5335C51.7679 39.5287 51.7286 39.5156 51.6929 39.4949C51.6572 39.4741 51.6258 39.4462 51.6006 39.4127C51.5754 39.3792 51.5569 39.3409 51.5461 39.2998C51.544 39.2798 51.544 39.2596 51.5461 39.2395L51.3455 36.8692C51.087 36.9481 50.824 37.027 50.5521 37.0965C45.0738 39.2581 37.6252 39.0911 33.0785 36.9388L33.074 36.9156ZM24.1322 62.0844H41.0709C41.1505 62.0844 41.2269 62.117 41.2837 62.1751C41.3404 62.2333 41.3728 62.3123 41.374 62.3952V65.1458C41.3728 65.2291 41.3405 65.3086 41.2839 65.3675C41.2273 65.4264 41.1509 65.46 41.0709 65.4612H24.1322C24.0526 65.46 23.9766 65.4262 23.9208 65.3672C23.8649 65.3082 23.8336 65.2287 23.8336 65.1458V62.3952C23.8336 62.3127 23.865 62.2337 23.921 62.1754C23.977 62.1171 24.053 62.0844 24.1322 62.0844ZM43.9014 67.7666H60.8401C60.9193 67.7666 60.9953 67.7993 61.0513 67.8576C61.1073 67.9159 61.1387 67.995 61.1387 68.0774V69.9792C61.1326 70.0595 61.0992 70.1349 61.0445 70.1918C60.9897 70.2488 60.9173 70.2836 60.8401 70.29C55.2686 71.4861 49.5899 72.0568 43.9014 71.9923C43.8214 71.9911 43.745 71.9575 43.6884 71.8986C43.6318 71.8397 43.5995 71.7602 43.5983 71.6769V68.0774C43.5995 67.9945 43.6319 67.9155 43.6886 67.8573C43.7454 67.7992 43.8218 67.7666 43.9014 67.7666ZM24.1322 67.7666H41.0709C41.1505 67.7666 41.2269 67.7992 41.2837 67.8573C41.3404 67.9155 41.3728 67.9945 41.374 68.0774V71.6769C41.3728 71.7602 41.3405 71.8397 41.2839 71.8986C41.2273 71.9575 41.1509 71.9911 41.0709 71.9923C35.3824 72.0568 29.7037 71.4861 24.1322 70.29C24.055 70.2836 23.9826 70.2488 23.9278 70.1918C23.8731 70.1349 23.8397 70.0595 23.8336 69.9792V68.0774C23.8336 67.995 23.865 67.9159 23.921 67.8576C23.977 67.7993 24.053 67.7666 24.1322 67.7666ZM43.9014 62.0844H60.8401C60.9193 62.0844 60.9953 62.1171 61.0513 62.1754C61.1073 62.2337 61.1387 62.3127 61.1387 62.3952V65.1458C61.1388 65.2287 61.1074 65.3082 61.0515 65.3672C60.9957 65.4262 60.9197 65.46 60.8401 65.4612H43.9014C43.8214 65.46 43.745 65.4264 43.6884 65.3675C43.6318 65.3086 43.5995 65.2291 43.5983 65.1458V62.3952C43.5995 62.3123 43.6319 62.2333 43.6886 62.1751C43.7454 62.117 43.8218 62.0844 43.9014 62.0844ZM55.1211 32.2956L56.855 33.3347C56.1918 34.3299 55.2918 35.129 54.2429 35.6539C54.2429 35.7606 54.2429 35.872 54.2429 35.9879L54.3677 37.4259C54.5128 37.4659 54.65 37.5318 54.7734 37.6207C54.9738 37.7679 55.1386 37.9617 55.2548 38.1866C55.4016 38.4749 55.4939 38.7898 55.5267 39.1143C55.5671 39.4966 55.5671 39.8824 55.5267 40.2647V40.2925C55.4886 40.6672 55.4275 41.0391 55.3439 41.4057C55.2567 41.7893 55.1435 42.166 55.0052 42.5329C54.7769 43.1768 54.4386 43.7723 54.0067 44.2909C53.7141 44.6509 53.3243 44.9111 52.8878 45.0377L52.7987 45.3439C52.7496 45.5062 52.6917 45.6825 52.656 45.8402C52.2103 47.4359 51.8448 48.6883 50.8998 49.936C50.6947 50.2051 50.454 50.4695 50.2401 50.7199C50.0796 50.8931 49.9146 51.0601 49.7453 51.2209C49.7499 51.2656 49.7499 51.3107 49.7453 51.3554V54.1385C49.8635 54.0719 49.9947 54.0339 50.129 54.0275C50.2633 54.0211 50.3973 54.0464 50.5209 54.1014C67.4595 61.2216 64.2145 55.4466 66.9781 70.123C68.2173 76.7051 16.385 79.0243 18.0388 70.3688C20.8648 55.5255 16.7684 61.5556 34.6476 54.1339H34.6921C34.7457 54.1112 34.8009 54.0926 34.8571 54.0782V51.2302C34.8564 51.1301 34.8794 51.0313 34.9239 50.9426L34.6476 50.6643C34.4633 50.4695 34.2895 50.2746 34.126 50.0798C33.5883 49.4149 33.1454 48.6728 32.8111 47.8765C32.4767 47.1065 32.2048 46.2669 31.9195 45.3253L31.7635 44.8336C31.404 44.7778 31.067 44.6169 30.7918 44.3698C30.3968 44.0059 30.0768 43.5625 29.8512 43.0663C29.6681 42.6727 29.519 42.2629 29.4055 41.8418C29.2814 41.4069 29.1948 40.9614 29.147 40.5105C29.0958 40.0683 29.0958 39.6214 29.147 39.1792C29.1861 38.8069 29.2984 38.4469 29.4768 38.1217C29.5805 37.9031 29.7279 37.7101 29.9092 37.5557C30.0336 37.4763 30.1689 37.4169 30.3104 37.3795L30.4218 36.1967C30.4065 35.9805 30.4065 35.7634 30.4218 35.5473C29.5334 34.9916 28.8123 34.1882 28.3401 33.228L30.1722 32.393C31.9151 37.2171 51.8537 37.7598 55.1344 32.291L55.1211 32.2956Z" fill="white"/>
</g>
<defs>
<filter id="filter0_i_482_1001" x="18" y="19" width="49.1" height="57.7" filterUnits="userSpaceOnUse" color-interpolation-filters="sRGB">
<feFlood flood-opacity="0" result="BackgroundImageFix"/>
<feBlend mode="normal" in="SourceGraphic" in2="BackgroundImageFix" result="shape"/>
<feColorMatrix in="SourceAlpha" type="matrix" values="0 0 0 0 0 0 0 0 0 0 0 0 0 0 0 0 0 0 127 0" result="hardAlpha"/>
<feOffset dx="0.1" dy="0.7"/>
<feGaussianBlur stdDeviation="0.55"/>
<feComposite in2="hardAlpha" operator="arithmetic" k2="-1" k3="1"/>
<feColorMatrix type="matrix" values="0 0 0 0 0 0 0 0 0 0 0 0 0 0 0 0 0 0 0.7 0"/>
<feBlend mode="normal" in2="shape" result="effect1_innerShadow_482_1001"/>
</filter>
</defs>
</svg>

<svg xmlns="http://www.w3.org/2000/svg" width="85" height="98" fill="none" viewBox="0 0 85 98">
  <path fill="#FF8502" d="M37.506 2.879a10 10 0 0 1 9.988 0l32.5 18.735A10 10 0 0 1 85 30.278v37.444a10 10 0 0 1-5.006 8.664l-32.5 18.735a10 10 0 0 1-9.988 0l-32.5-18.735A10 10 0 0 1 0 67.722V30.278a10 10 0 0 1 5.006-8.664z"/>
  <g filter="url(#filter0_i_482_1001)">
    <path fill="#fff" fill-rule="evenodd" d="M37.269 20.055a11.96 11.96 0 0 1 5.674-1.03c1.951.113 3.858.653 5.594 1.586 3.647 1.971 6.441 5.645 6.629 10.539.01.278-.086.549-.267.753a1 1 0 0 1-.7.337.99.99 0 0 1-.725-.278 1.07 1.07 0 0 1-.323-.729 12.1 12.1 0 0 0-1.492-5.006 11.6 11.6 0 0 0-3.434-3.835c-.133-.07-.263-.139-.4-.204a.9.9 0 0 1-.358.056c-.918 0-1.158 1.68-1.212 3.97-.027 1.03 0 2.162 0 3.317 0 .928.036 1.856.036 2.482 0 .276-.106.542-.294.738a.98.98 0 0 1-.71.305.98.98 0 0 1-.709-.305 1.07 1.07 0 0 1-.293-.738c0-1.016 0-1.74-.027-2.45 0-1.182-.045-2.319 0-3.395.053-2.069.29-3.822 1.016-4.875a20 20 0 0 0-2.425-.25c-.96-.046-1.923-.011-2.88.102.67 1.08.892 2.806.946 4.833.027 1.1 0 2.296 0 3.52v2.515c-.017.258-.127.5-.309.676a.96.96 0 0 1-.67.275.96.96 0 0 1-.67-.275 1.04 1.04 0 0 1-.308-.676c0-.65 0-1.6.036-2.542.022-1.206.04-2.38 0-3.442-.054-2.352-.299-4.091-1.23-4.063a.9.9 0 0 1-.33-.056c-2.305 1.392-4.351 4.383-5.35 9.398-.04.27-.18.514-.391.677a.97.97 0 0 1-.736.195.95.95 0 0 1-.373-.112 1 1 0 0 1-.3-.254 1.03 1.03 0 0 1-.219-.757c.753-5.844 3.638-9.379 7.2-11.002zm11.25 32.191c-.236.148-.588.366-.891.543q-.27.166-.562.287c-.747.376-1.532.665-2.34.863a8.8 8.8 0 0 1-4.257.028h-.027a12 12 0 0 1-1.912-.64 13 13 0 0 1-1.337-.622 15 15 0 0 1-1.128-.677v2.32l6.24 2.008L48.52 54.5zm-15.445-15.33-.374 2.319a.34.34 0 0 1-.129.21.3.3 0 0 1-.232.059.5.5 0 0 1-.116-.046l-1.11-.743h-.054c-.191-.027-.33-.041-.446.172q-.125.246-.151.524-.047.465 0 .928.062.551.214 1.085.137.507.361.979c.137.314.332.596.575.83a.44.44 0 0 0 .392.135h.023a.64.64 0 0 1 .49.06.72.72 0 0 1 .334.408v.023l.196.599.147.464c.558 1.73.99 3.066 1.962 4.244.434.516.92.983 1.448 1.392.567.442 1.173.827 1.81 1.15h.023q.187.097.374.18l.401.172a9.7 9.7 0 0 0 1.61.464 8.5 8.5 0 0 0 1.59.167 9 9 0 0 0 1.868-.167 9.5 9.5 0 0 0 1.823-.589c.139-.06.246-.116.353-.167a10 10 0 0 0 1.84-1.197 9.2 9.2 0 0 0 1.49-1.535c.37-.493.67-1.04.89-1.623q.37-.97.643-1.972l.067-.232q.139-.488.298-1.025a.73.73 0 0 1 .294-.431.7.7 0 0 1 .49-.102c.152.028.33-.093.513-.311.306-.397.547-.844.714-1.322q.173-.454.285-.928.109-.458.147-.927v-.028a4 4 0 0 0 0-.738 1.3 1.3 0 0 0-.116-.464c-.085-.153-.151-.236-.223-.264a.5.5 0 0 0-.285 0l-.41.278c-.35.267-.744.462-1.164.575a.3.3 0 0 1-.328-.11.3.3 0 0 1-.055-.112.3.3 0 0 1 0-.06l-.2-2.37a18 18 0 0 1-.794.227c-5.478 2.161-12.927 1.994-17.473-.158zm-8.942 25.168h16.939c.08 0 .156.033.213.091s.089.137.09.22v2.75a.33.33 0 0 1-.09.223.3.3 0 0 1-.213.093H24.132a.3.3 0 0 1-.211-.094.32.32 0 0 1-.087-.221v-2.75c0-.083.031-.162.087-.22a.3.3 0 0 1 .211-.092m19.77 5.683H60.84c.08 0 .155.032.211.09a.32.32 0 0 1 .088.22v1.902a.34.34 0 0 1-.095.213.32.32 0 0 1-.204.098 76.6 76.6 0 0 1-16.939 1.702.3.3 0 0 1-.213-.093.33.33 0 0 1-.09-.222v-3.6a.32.32 0 0 1 .09-.22.3.3 0 0 1 .213-.09m-19.77 0h16.939c.08 0 .156.032.213.09s.089.138.09.22v3.6a.33.33 0 0 1-.09.222.3.3 0 0 1-.213.093 76.6 76.6 0 0 1-16.939-1.702.32.32 0 0 1-.204-.098.34.34 0 0 1-.094-.213v-1.902c0-.082.031-.161.087-.22a.3.3 0 0 1 .211-.09m19.77-5.683H60.84c.08 0 .155.033.211.091a.32.32 0 0 1 .088.22v2.75a.32.32 0 0 1-.088.222.3.3 0 0 1-.21.094H43.9a.3.3 0 0 1-.213-.093.33.33 0 0 1-.09-.222v-2.75a.32.32 0 0 1 .09-.22.3.3 0 0 1 .213-.092m11.22-29.788 1.733 1.039a6.8 6.8 0 0 1-2.612 2.319v.334l.125 1.438q.219.06.405.195c.2.147.366.34.482.566.147.288.239.603.272.927q.06.576 0 1.15v.028q-.058.563-.183 1.114-.13.575-.339 1.127a5.8 5.8 0 0 1-.998 1.758c-.293.36-.683.62-1.12.747l-.088.306c-.05.162-.107.338-.143.496-.446 1.596-.811 2.848-1.756 4.096-.205.27-.446.533-.66.784q-.24.26-.495.5a.7.7 0 0 1 0 .135v2.784a.87.87 0 0 1 .776-.038c16.939 7.12 13.694 1.346 16.457 16.022 1.24 6.582-50.593 8.901-48.94.246 2.827-14.843-1.27-8.813 16.61-16.235h.044q.081-.034.165-.056V51.23c0-.1.022-.199.067-.287l-.276-.279q-.278-.293-.522-.584a9.1 9.1 0 0 1-1.315-2.203c-.334-.77-.606-1.61-.892-2.552l-.155-.491a1.9 1.9 0 0 1-.972-.464 4.05 4.05 0 0 1-.94-1.304 7.6 7.6 0 0 1-.447-1.224 8 8 0 0 1-.258-1.331 5.8 5.8 0 0 1 0-1.332 2.8 2.8 0 0 1 .33-1.057 1.7 1.7 0 0 1 .432-.566q.189-.121.401-.176l.112-1.183a5 5 0 0 1 0-.65 5.7 5.7 0 0 1-2.082-2.319l1.832-.835c1.743 4.824 21.682 5.367 24.962-.102z" clip-rule="evenodd"/>
  </g>
  <defs>
    <filter id="filter0_i_482_1001" width="49.1" height="57.7" x="18" y="19" color-interpolation-filters="sRGB" filterUnits="userSpaceOnUse">
      <feFlood flood-opacity="0" result="BackgroundImageFix"/>
      <feBlend in="SourceGraphic" in2="BackgroundImageFix" result="shape"/>
      <feColorMatrix in="SourceAlpha" result="hardAlpha" values="0 0 0 0 0 0 0 0 0 0 0 0 0 0 0 0 0 0 127 0"/>
      <feOffset dx=".1" dy=".7"/>
      <feGaussianBlur stdDeviation=".55"/>
      <feComposite in2="hardAlpha" k2="-1" k3="1" operator="arithmetic"/>
      <feColorMatrix values="0 0 0 0 0 0 0 0 0 0 0 0 0 0 0 0 0 0 0.7 0"/>
      <feBlend in2="shape" result="effect1_innerShadow_482_1001"/>
    </filter>
  </defs>
</svg>
